X: 1
T: String Quartet in B\b Major opus 71 no 1 mvt 3
C: Franz Joseph Haydn
%%abc-version 2.0
%%abcx-abcm2ps-target-version 5.9.1 (29 Sep 2008)
%%abc-creator hum2abc beta
%%abcx-conversion-date 2021/02/14 14:38:12
%%abc-copyright Copyright (c) 1994, 2000 Center for Computer Assisted Research in the Humanities
%%abc-edited-by Frances Bennion
%%abcx-initial-encoding-date 1997/04/15
%%gracespace 0 6 6
%%humdrum-veritas 1767874124
%%humdrum-veritas-data 2515655901
%%linebreak <none>
%%barnumbers 0
L: 1/4
M: 3/4
N: Derived from op71n1-03.krn
Q: "Menuetto: Allegretto"
%%staves [1 2 3 4]
V: 1
V: 2
V: 3 clef=alto
V: 4 clef=bass
K: Bb
[V:1]z2 B,/C/ [I:setbarnb1] |
[V:2]z2 z |
[V:3]z2 z |
[V:4]z2 z |
[V:1]D3 |
[V:2]B,3- |
[V:3]F,3 |
[V:4]B,, F, _A,, |
[V:1]E2 G |
[V:2]B,3 |
[V:3]E,3 |
[V:4]G,, B,, E,, |
[V:1]F2 E |
[V:2]A,3 |
[V:3]F,3 |
[V:4]F,, A,, C, |
[V:1]D z g |
[V:2]B, z B |
[V:3]B, z E |
[V:4]B,, B, z |
[V:1]f2 e |
[V:2]A3 |
[V:3]F A c |
[V:4]z3 |
[V:1]d z B,/C/ |
[V:2]B z2 |
[V:3]B z2 |
[V:4]z3 |
[V:1]D3 |
[V:2]B,3- |
[V:3]F,2 ^F, |
[V:4]B,, D, ^F,, |
[V:1]E2 G |
[V:2]B,3 |
[V:3]G,3- |
[V:4]G,, B,, E,, |
[V:1]F2 E |
[V:2]=B,2 C |
[V:3]G,2 ^F, |
[V:4]D,, G,, ^F,, |
[V:1]D z g |
[V:2]=B, z e |
[V:3]G, z2 |
[V:4]G,, G, z |
[V:1]f2 e |
[V:2]d2 c |
[V:3]z F ^F |
[V:4]z3 |
[V:1]d z g |
[V:2]=B z _B- |
[V:3]G G, C |
[V:4]z2 =E |
[V:1]c2 g |
[V:2]B A B- |
[V:3]F2 C |
[V:4]F2 =E |
[V:1]c2 f- |
[V:2]B A A- |
[V:3]F2 D |
[V:4]F2 =B, |
[V:1]f g =e |
[V:2]A B G |
[V:3]C =E/G/ B |
[V:4]C2 C, |
[V:1]f z2 |
[V:2]A z F- |
[V:3]A z C |
[V:4]F, z A, |
[V:1]z3 |
[V:2]F _G =E |
[V:3]_D3 |
[V:4]B,3 |
[V:1]z2 c |
[V:2]F2 A |
[V:3]C2 F- |
[V:4]A,2 z |
[V:1]_d3 |
[V:2]B3 |
[V:3]F _G =E |
[V:4]z3 |
[V:1]c2 f- |
[V:2]A2 =B |
[V:3]F2 G- |
[V:4]z2 D |
[V:1]f g =e |
[V:2]c z B- |
[V:3]G2 G- |
[V:4]C3 |
[V:1]z2 e- |
[V:2]B c A |
[V:3]G A c- |
[V:4]F,3 |
[V:1]e f d |
[V:2]z2 _A- |
[V:3]c d F- |
[V:4]B,3 |
[V:1]z2 e- |
[V:2]A B G- |
[V:3]F G E |
[V:4]E3 |
[V:1]e d c |
[V:2]G F E |
[V:3]A,2 B, |
[V:4]A,2 B, |
[V:1]B A g- |
[V:2]D C e- |
[V:3]F,2 z |
[V:4]F,2 z |
[V:1]g f e |
[V:2]e d c |
[V:3]A2 B |
[V:4]z3 |
[V:1]d c B,/C/ |
[V:2]B A z |
[V:3]F2 z |
[V:4]z3 |
[V:1]D3 |
[V:2]B,3- |
[V:3]F,3 |
[V:4]B,, F, _A,, |
[V:1]E2 G |
[V:2]B,3 |
[V:3]E,3 |
[V:4]G,, B,, E,, |
[V:1]F2 E |
[V:2]A,3 |
[V:3]F,3 |
[V:4]F,, A,, C, |
[V:1]D z d'/c'/ |
[V:2]B, z D/E/ |
[V:3]B, z B,/C/ |
[V:4]B,, B, z |
[V:1]b d' ^f |
[V:2]F B B |
[V:3]D3 |
[V:4]z3 |
[V:1]g b e |
[V:2]B3 |
[V:3]E2 G |
[V:4]z3 |
[V:1]d f A |
[V:2]B2 [AF] |
[V:3]F2 E |
[V:4]z3 |
[V:1]B d G |
[V:2][B2F2] z |
[V:3]D2 E- |
[V:4]z2 G,/A,/ |
[V:1]F2 E |
[V:2]z3 |
[V:3]E D C- |
[V:4]B, D ^F, |
[V:1]D3 |
[V:2]z2 F |
[V:3]C B, B, |
[V:4]G, B, D, |
[V:1]C3 |
[V:2]G E F |
[V:3]B,2 A, |
[V:4]E, G, F, |
[V:1]B, z f/c/ |
[V:2]B z F |
[V:3]B, z C |
[V:4]B,, z A,, |
[V:1]d/A/ B/F/ B/^F/ |
[V:2]F >z ^F |
[V:3]D z B, |
[V:4]B,, z D, |
[V:1]G/D/ E/C/ g/d/ |
[V:2]G z2 |
[V:3]B, z2 |
[V:4]E, z2 |
[V:1]e/=B/ c/G/ e/c/ |
[V:2]G z G/E/ |
[V:3]C z C |
[V:4]E, z C, |
[V:1]B/A/ G/F/ f/c/ |
[V:2]C z C |
[V:3]C z F |
[V:4]F, z A,, |
[V:1]d/A/ B/F/ B/^F/ |
[V:2]D z ^F |
[V:3]F z B, |
[V:4]B,, z D, |
[V:1]G/D/ E/C/ g/d/ |
[V:2]G z2 |
[V:3]B, z2 |
[V:4]E, z2 |
[V:1]e/=B/ c/e/ F/A/ |
[V:2]G z E |
[V:3]C z C |
[V:4]E, z F, |
[V:1]B z c/f/ |
[V:2]D z A |
[V:3]D z F/C/ |
[V:4]B,, B, z |
[V:1]d z a |
[V:2]B z c/f/ |
[V:3]D/A,/ B,/F,/ z |
[V:4]z2 F,/C,/ |
[V:1]b z c'/f'/ |
[V:2]d z a |
[V:3]z2 F/C/ |
[V:4]D,/A,,/ B,,/F,,/ z |
[V:1]d' z =e' |
[V:2]b z b |
[V:3]D/A,/ B,/F,/ z |
[V:4]z2 G,/C,/ |
[V:1]f' z =e |
[V:2]a z B/c/ |
[V:3]z3 |
[V:4]F,/A,,/ C,/F,,/ z |
[V:1]f a =e |
[V:2]A/c/ F/A/ B/c/ |
[V:3]z3 |
[V:4]z3 |
[V:1]f a =e |
[V:2]A/c/ F/c/ B/c/ |
[V:3]z2 C |
[V:4]z3 |
[V:1]f c' =e |
[V:2]A/c/ F/c/ B/c/ |
[V:3]F, z C |
[V:4]z3 |
[V:1]f/F/ A/F/ B/F/ |
[V:2]A E D |
[V:3]F, z2 |
[V:4]F,3- |
[V:1]=B/F/ c/F/ d/F/ |
[V:2]_D C =B, |
[V:3]z3 |
[V:4]F,3- |
[V:1]e/F/ A/F/ B/F/ |
[V:2]C E D |
[V:3]A, C/z3/ |
[V:4]F,3- |
[V:1]=B/F/ c/F/ d/F/ |
[V:2]_D C =B, |
[V:3]z3 |
[V:4]F,3- |
[V:1]e/F/ A/F/ B/F/ |
[V:2]C E D |
[V:3]A, C/z3/ |
[V:4]F,3- |
[V:1]=B/F/ c/F/ d/F/ |
[V:2]_D C =B, |
[V:3]z3 |
[V:4]F,3- |
[V:1]e/F/ =e/F/ f/c/ |
[V:2]C B, A, |
[V:3]z3 |
[V:4]F,2 F,,/A,,/ |
[V:1]d/A/ B/F/ B/^F/ |
[V:2]B, z2 |
[V:3]z2 D,/B,/ |
[V:4]B,,/C,/ D, z |
[V:1]G/D/ E/C/ g/d/ |
[V:2]z2 E/=B,/ |
[V:3]E,/F,/ G, z |
[V:4]z3 |
[V:1]e/=B/ c/G/ e/c/ |
[V:2]C/D/ E/D/ C/E/ |
[V:3]z3 |
[V:4]z3 |
[V:1]B/A/ G/F/ f/c/ |
[V:2]F z2 |
[V:3]z3 |
[V:4]z2 A,,/F,/ |
[V:1]d/A/ B/F/ B/^F/ |
[V:2]z3 |
[V:3]z2 D,/B,/ |
[V:4]B,,/C,/ D, z |
[V:1]G/D/ E/C/ g/d/ |
[V:2]z2 E/=B,/ |
[V:3]E,/F,/ G, z |
[V:4]z3 |
[V:1]e/=B/ c/e/ F/A/ |
[V:2]C/D/ E/G/ F/E/ |
[V:3]z2 C |
[V:4]z2 F, |
[V:1]B z2 |]
[V:2]D z2 |]
[V:3]D z2 |]
[V:4]B,, z2 |]

